X: 122
T: No_7_Song_with_Lacrosse_Game.krn
N: Derived from No_7_Song_with_Lacrosse_Game.krn
%%abc-version 2.0
%%abcx-abcm2ps-target-version 5.9.1 (29 Sep 2008)
%%abc-creator hum2abc beta
%%abcx-conversion-date 2019/03/15 08:35:45
%%humdrum-veritas 3298448158
%%humdrum-veritas-data 4155413493
%%linebreak <none>
%%barnumbers 0
L: 1/8
M: 3/4
K: G clef=bass
[K:clef=bass][M:3/4](3CCB,B,2(3CCB, ||  
[M:2/4]B,4 ||  
[M:3/4]A,3/G,/ G,3/F,/E,2 ||  
[M:2/4]F,4 ||  
[M:3/4]F,3/E,/ E,3/D,/ ^C, z ||  
[M:2/4]E,4 ||  
[M:3/4]E,3/D,/ C,3/B,,/B,,2 | 
B,,4B,, z | 
(3F,F,F,F,2(3G,G,G, ||  
[M:2/4]F,4 ||  
[M:3/4]F,3/E,/ E,3/D,/ C, z ||  
[M:2/4]F,4 ||  
[M:3/4]F,3/E,/ E,3/D,/C,2 ||  
[M:2/4]E,4 ||  
[M:3/4]E,3/D,/ C,3/B,,/B,,2 | 
B,,6 |]  



